X: 36861
T: Ships In Full Sail, The
R: jig
M: 6/8
K: Amajor
cd|:e3ecA|faf fed|e3ecA|BcB Bcd|
e3ecA|faf fed|EFA BAB|cAA Acd:|
|:eaa c'aa|baa c'af|eaa c'aa|bab baf|
eaa c'aa|baa c'ae|fef ecA|BcBA3:|

